X:800
T:Lass o' Rothiemay, The
C:Joe Buchanan's Scottish Tome - Page 576.0
I:576 0
Z:Carl Allison
C:Dr. Louis MacKenzie
R:Slow Air
L:1/4
M:3/4
K:G
B/A/ | "G"G3 | "D7"(D2 E) | "G"(D B,2) | "Bm"(D2 G) | "Em"B3 | "Bm"(d2 e) | "C"(e/(g/ g2)) | (g2 e) |
"G"d3 | (B d) | "Bm"D3 | "Em"(B2 G) | "Am"A3 | "Am7"(A, B,) | "Am"C3 | "D7"(B,2 C) |
"G"D3 | "D7"(E2 D) | "G"D/G/- G2 | "D7"(B2 d) | "C"e3 | (e2 f) | "A7"g3 | (g>f e) |
"G"d3 | (B2 d) | "D"D3 | "D7"(B2 d) | "Am"(c2 D) | "D7"(F2 D) | "G"(D/(G/ G2))- | G (F G) |
"D"A3 | (B2 A) | (F D2)- | D2 D | "G"G3 | "Bm"(B2 d) | "C"(e/(g/ g2))- | g2 e |
"G"d3 | (B2 d) | "Bm"D3 | "Em"(B2 G) | "Am"A3 | "Am7"(A,2 B,) | "Am"C3 | "D7"(B,2 C) |
"G"D3 | "D7"(E2 D) | "G"(D/(G/ G2)) | "G7"(B2 d) | "C"e3 | (e2 f) | "A7"g3 | (g>f e) |
"G"d3 | (B2 d) | "D"D3 | "D7"(B2 d) | "Am"(c2 D) | "D7"(F2 D) | "G"(D/(G/ G2)) | G2 |]
